static/logos/mparticle-wordmark-color.svg

<svg width="117" height="25" viewBox="0 0 117 25" fill="none" xmlns="http://www.w3.org/2000/svg">
<path fill-rule="evenodd" clip-rule="evenodd" d="M19.3906 18.5885V24.7851L29.0868 18.5885V12.3925L19.3906 18.5885Z" fill="#1A1A1A"/>
<path fill-rule="evenodd" clip-rule="evenodd" d="M9.69531 18.5885V24.7851L19.3914 18.5885V12.3925L9.69531 18.5885Z" fill="#1A1A1A"/>
<path fill-rule="evenodd" clip-rule="evenodd" d="M0 18.5885V24.7851L9.69613 18.5885V12.3925L0 18.5885Z" fill="#1A1A1A"/>
<path fill-rule="evenodd" clip-rule="evenodd" d="M29.0868 0L19.3906 6.19628V12.3926L29.0868 6.19628V0Z" fill="#1A1A1A"/>
<path fill-rule="evenodd" clip-rule="evenodd" d="M19.3914 0L9.69531 6.19628V12.3926L19.3914 6.19628V0Z" fill="#1A1A1A"/>
<path fill-rule="evenodd" clip-rule="evenodd" d="M9.69613 0L0 6.19628V12.3926L9.69613 6.19628V0Z" fill="#1A1A1A"/>
<path fill-rule="evenodd" clip-rule="evenodd" d="M49.7057 12.7679V18.6376H47.2028V12.9629C47.2028 11.8126 46.6637 11.2469 45.6242 11.2469C44.8536 11.2469 44.1801 11.5786 43.6026 12.2414V18.6376H41.0992V12.9629C41.0992 11.8126 40.5796 11.2469 39.5398 11.2469C38.7506 11.2469 38.0765 11.598 37.4987 12.3002V18.6376H34.9766V9.2773H37.3257V10.1551C38.0958 9.47237 39.1742 9.10202 40.2716 9.10202C41.5422 9.10202 42.4661 9.53119 43.0056 10.389C44.0258 9.53119 45.1427 9.10202 46.3554 9.10202C48.5315 9.10202 49.7057 10.389 49.7057 12.7679Z" fill="#1A1A1A"/>
<path fill-rule="evenodd" clip-rule="evenodd" d="M58.8393 13.9381C58.8393 12.2807 57.6843 11.2469 56.3748 11.2469C55.5276 11.2469 54.8154 11.5786 54.2571 12.2025V15.7713C54.8154 16.3757 55.4891 16.6876 56.2787 16.6876C57.7036 16.6876 58.8393 15.6541 58.8393 13.9381ZM60.707 11.4031C61.1307 12.1442 61.3615 12.9824 61.3615 13.9381C61.3615 15.3812 60.784 16.6681 59.9174 17.5065C59.0512 18.3453 57.8958 18.8523 56.6831 18.8523C55.7397 18.8523 54.9501 18.5599 54.2956 17.994V23.0059H51.7734V9.27744H54.2187V9.99903C54.9501 9.39466 55.7781 9.10202 56.6831 9.10202C58.3388 9.10202 59.8212 9.92098 60.707 11.4031Z" fill="#1A1A1A"/>
<path fill-rule="evenodd" clip-rule="evenodd" d="M69.4677 15.7906V12.1635C68.9096 11.559 68.2168 11.2469 67.4079 11.2469C66.0601 11.2469 64.905 12.3001 64.905 13.977C64.905 15.654 66.0408 16.6875 67.3888 16.6875C68.2361 16.6875 68.9288 16.395 69.4677 15.7906ZM71.9516 18.6376H69.5868L69.584 17.8381C68.8903 18.5207 68.0431 18.8522 67.042 18.8522C65.3865 18.8522 63.9038 18.0137 63.0373 16.512C62.5944 15.7712 62.3828 14.9324 62.3828 13.977C62.3828 12.0855 63.3456 10.5058 64.7704 9.70639C65.4826 9.29709 66.253 9.10202 67.0612 9.10202C68.0624 9.10202 68.8903 9.43334 69.5648 10.077V9.2773H71.9516V18.6376Z" fill="#1A1A1A"/>
<path fill-rule="evenodd" clip-rule="evenodd" d="M76.4583 9.2773V10.1356C77.2092 9.37501 78.0371 9.10202 79.4618 9.10202V11.5199C79.2883 11.4615 79.0385 11.442 78.7687 11.442C77.9986 11.442 77.1899 11.8321 76.6318 12.5143V18.6376H74.1094V9.2773H76.4583Z" fill="#1A1A1A"/>
<path fill-rule="evenodd" clip-rule="evenodd" d="M87.0656 9.27729V11.3834H84.9864V18.6376H82.4833V11.3834H80.5391V9.27729H82.4833V6.15742H84.9864V9.27729H87.0656Z" fill="#1A1A1A"/>
<mask id="mask0_1_1933" style="mask-type:alpha" maskUnits="userSpaceOnUse" x="0" y="0" width="117" height="25">
<path d="M0 24.7853H116.875V0.00543213H0V24.7853Z" fill="white"/>
</mask>
<g mask="url(#mask0_1_1933)">
<path fill-rule="evenodd" clip-rule="evenodd" d="M88.5415 18.6379H91.0639V9.27758H88.5415V18.6379ZM88.4844 8.0298H91.1217V5.45554H88.4844V8.0298Z" fill="#1A1A1A"/>
<path fill-rule="evenodd" clip-rule="evenodd" d="M101.67 16.746C100.784 18.0332 99.2823 18.8328 97.5686 18.8328C95.7585 18.8328 94.1611 17.9745 93.2747 16.4924C92.8321 15.7515 92.6016 14.9131 92.6016 13.9965C92.6016 12.144 93.5451 10.5647 95.0661 9.72591C95.8163 9.3166 96.6443 9.10202 97.5493 9.10202C99.3786 9.10202 100.745 9.8041 101.65 11.2274L99.7248 12.4365C99.1859 11.6565 98.4736 11.2664 97.5686 11.2664C96.1054 11.2664 95.1233 12.417 95.1233 14.016C95.1233 15.6151 96.0668 16.6681 97.5493 16.6681C98.4929 16.6681 99.2437 16.2783 99.8211 15.5177L101.67 16.746Z" fill="#1A1A1A"/>
<path fill-rule="evenodd" clip-rule="evenodd" d="M103.32 18.6377H105.823V4.61697H103.32V18.6377Z" fill="#1A1A1A"/>
<path fill-rule="evenodd" clip-rule="evenodd" d="M112.23 11.1665C113.404 11.1665 114.136 11.7319 114.444 12.8826H109.843C110.189 11.7712 111.017 11.1665 112.23 11.1665ZM114.484 15.5672C113.888 16.2809 113.109 16.646 112.172 16.646C110.864 16.646 109.939 15.9245 109.746 14.5597H116.851C116.87 14.4231 116.87 14.2867 116.87 14.1696C116.87 11.0691 114.964 9.08 112.172 9.08C111.209 9.08 110.362 9.29459 109.612 9.74292C108.11 10.6205 107.281 12.161 107.281 13.9744C107.281 15.3006 107.782 16.5292 108.61 17.3872C109.438 18.2647 110.728 18.8108 112.172 18.8108C113.867 18.8108 115.33 18.0697 116.254 16.7435L116.252 16.7423L114.484 15.5672Z" fill="#1A1A1A"/>
</g>
</svg>

<svg xmlns="http://www.w3.org/2000/svg" width="299.52" height="64" fill="none" viewBox="0 0 117 25"><path fill="#1A1A1A" fill-rule="evenodd" d="M19.39 18.588v6.197l9.697-6.197v-6.196L19.39 18.59Z" clip-rule="evenodd"/><path fill="#1A1A1A" fill-rule="evenodd" d="M9.695 18.588v6.197l9.696-6.197v-6.196L9.695 18.59Z" clip-rule="evenodd"/><path fill="#1A1A1A" fill-rule="evenodd" d="M0 18.588v6.197l9.696-6.197v-6.196L0 18.59ZM29.087 0 19.39 6.196v6.197l9.696-6.197V0Z" clip-rule="evenodd"/><path fill="#1A1A1A" fill-rule="evenodd" d="M19.391 0 9.695 6.196v6.197l9.696-6.197V0Z" clip-rule="evenodd"/><path fill="#1A1A1A" fill-rule="evenodd" d="M9.696 0 0 6.196v6.197l9.696-6.197V0ZM49.706 12.768v5.87h-2.503v-5.675c0-1.15-.54-1.716-1.579-1.716-.77 0-1.444.332-2.021.994v6.397h-2.504v-5.675c0-1.15-.52-1.716-1.56-1.716-.788 0-1.462.351-2.04 1.053v6.338h-2.522v-9.36h2.349v.877c.77-.683 1.848-1.053 2.946-1.053 1.27 0 2.194.43 2.734 1.287 1.02-.858 2.137-1.287 3.35-1.287 2.175 0 3.35 1.287 3.35 3.666ZM58.84 13.938c0-1.657-1.156-2.691-2.465-2.691-.847 0-1.56.332-2.118.956v3.568c.558.605 1.232.917 2.022.917 1.425 0 2.56-1.034 2.56-2.75Zm1.867-2.535c.424.741.654 1.58.654 2.535 0 1.443-.577 2.73-1.444 3.568-.866.84-2.021 1.346-3.234 1.346-.943 0-1.733-.292-2.387-.858v5.012h-2.523V9.277h2.446V10a3.772 3.772 0 0 1 2.464-.897c1.656 0 3.138.819 4.024 2.301ZM69.468 15.79v-3.626c-.558-.605-1.251-.917-2.06-.917-1.348 0-2.503 1.053-2.503 2.73s1.136 2.71 2.484 2.71c.847 0 1.54-.292 2.079-.896Zm2.484 2.848h-2.365l-.003-.8c-.694.683-1.54 1.014-2.542 1.014-1.656 0-3.138-.838-4.005-2.34-.443-.74-.654-1.58-.654-2.535 0-1.892.963-3.471 2.387-4.27a4.53 4.53 0 0 1 2.291-.605c1.001 0 1.83.331 2.504.975v-.8h2.387v9.36ZM76.458 9.277v.859c.751-.761 1.58-1.034 3.004-1.034v2.418c-.174-.059-.424-.078-.693-.078-.77 0-1.58.39-2.137 1.072v6.124h-2.523v-9.36h2.35ZM87.066 9.277v2.106h-2.08v7.255h-2.503v-7.255H80.54V9.277h1.944v-3.12h2.503v3.12h2.08Z" clip-rule="evenodd"/><mask id="a" width="117" height="25" x="0" y="0" maskUnits="userSpaceOnUse" style="mask-type:alpha"><path fill="#fff" d="M0 24.785h116.875V.005H0v24.78Z"/></mask><g fill="#1A1A1A" fill-rule="evenodd" clip-rule="evenodd" mask="url(#a)"><path d="M88.541 18.638h2.523v-9.36h-2.522v9.36ZM88.484 8.03h2.638V5.456h-2.638V8.03ZM101.67 16.746c-.886 1.287-2.388 2.087-4.101 2.087-1.81 0-3.408-.858-4.294-2.34a4.796 4.796 0 0 1-.673-2.496c0-1.853.943-3.432 2.464-4.271a5.107 5.107 0 0 1 2.483-.624c1.83 0 3.196.702 4.101 2.125l-1.925 1.21c-.54-.78-1.251-1.17-2.156-1.17-1.464 0-2.446 1.15-2.446 2.749 0 1.6.944 2.652 2.426 2.652.944 0 1.695-.39 2.272-1.15l1.849 1.228ZM103.32 18.638h2.503V4.617h-2.503v14.02ZM112.23 11.166c1.174 0 1.906.566 2.214 1.717h-4.601c.346-1.112 1.174-1.716 2.387-1.716Zm2.254 4.401c-.596.714-1.375 1.079-2.312 1.079-1.308 0-2.233-.722-2.426-2.086h7.105c.019-.137.019-.273.019-.39 0-3.1-1.906-5.09-4.698-5.09-.963 0-1.81.215-2.56.663-1.502.877-2.331 2.418-2.331 4.231 0 1.327.501 2.555 1.329 3.413.828.878 2.118 1.424 3.562 1.424 1.695 0 3.158-.741 4.082-2.067l-.002-.002-1.768-1.175Z"/></g></svg>
